X:2728
L:1/16
Q:1/4=100
M:2/4
K:C
"^Moderato" e2fe d2c2 | dcBA G4 | e2fe d2c2 | d2g2 d4 | e4 fedc | dcBA G4 | (cdef) g2c2 | 
 d2e2 c4 || f2gf e2d2 | eded A2c2 | f2gf e2d2 | e2g2 g4 | f2gf e2d2 | efge d2cd | e2dc G2B2 | 
 c2e2 c4 |]

